P2
20 12
255
0 0 0 0 0 0 0 0 0 0 0 0 0 0 0 0 0 0 0 0 
0 254 254 254 254 254 254 254 254 254 254 254 254 254 254 254 254 254 254 0 
0 254 254 254 254 254 254 254 254 254 254 254 254 254 254 254 254 254 254 0 
0 254 254 254 254 254 254 254 254 254 254 254 254 254 254 254 254 254 254 0 
0 254 254 254 254 254 254 254 254 254 254 254 254 254 254 254 254 254 254 0 
0 254 254 254 254 254 254 254 254 254 254 254 254 254 254 254 254 254 254 0 
0 254 254 254 254 254 254 254 254 254 254 254 254 254 254 254 254 254 254 0 
0 254 254 254 254 254 254 254 254 254 254 254 254 254 254 254 254 254 254 0 
0 254 254 254 254 254 254 254 254 254 254 254 254 254 254 254 254 254 254 0 
0 254 254 254 254 254 254 254 254 254 254 254 254 254 254 254 254 254 254 0 
0 254 254 254 254 254 254 254 254 254 254 254 254 254 254 254 254 254 254 0 
0 0 0 0 0 0 0 0 0 0 0 0 0 0 0 0 0 0 0 0 
